X:264
T: Song wo biaomei yizhi hua
N: C0412
O: China,Jiangxi, Yudu
S: IV, 243]
N: Mehrere Verzierungen.
R: Wuge, Dengge, changge. Biaoda aiqing]
M: 2/4
L: 1/32
K: C
g4e4e4d4 | g4g8z4 |
c2c2c2d2g4e4 | d12G2G2 |
A2c2c8A2A2 | G4E8z4 |
A2c2G2A2c2c2G2A2 | G16 |
A4A4g4e2g2 | d4c4A8 |
G4G2A2c4A2G2 | G4E8z4 |
c4c4-c2d2B2A2 | G4E8z4 |
c2c2c2d2g4e4 | d16 |
A4A2c2G2E2G2A2 | c16 |
c4c2d2g4e2g2 | d4d8B4 |
A2c2G2A2c2dcG2A2 | G16

@@@ Tune index: 6265
